build/img/info-icon2.svg

<svg width="48" height="42" fill="none" xmlns="http://www.w3.org/2000/svg"><path d="M7 1h28v6l11 19v2M11 10c5.052 0 9.315 3.836 9.925 16.02M19 10c5.052 0 9.315 3.924 9.925 16.107"/><path d="M11 10h15c5.052 0 9.479 3.917 10 17M16 8V5m8 3V5M10 5h21v4M1 19V1h6v6l9 19v3m2.945-2.724a4.506 4.506 0 015.958 3.29M7 41h4m4 0h11"/><path d="M24.401 28.252a4 4 0 017.505.881l-.002-.001A4.994 4.994 0 0136 27m0 0a4 4 0 014 4h7m-4 6h-8a3 3 0 10-6 0h-4M2 35h10a3 3 0 116 0h3"/></svg>

<svg width="48" height="42" viewBox="0 0 48 42" fill="none" xmlns="http://www.w3.org/2000/svg">
<path d="M7 1H27H35V7L46 26V28" stroke-width="2" stroke-miterlimit="10" stroke-linecap="round" stroke-linejoin="round"/>
<path d="M11 10C16.052 10 20.315 13.836 20.925 26.02" stroke-width="2" stroke-miterlimit="10" stroke-linejoin="round"/>
<path d="M19 10C24.052 10 28.315 13.924 28.925 26.107" stroke-width="2" stroke-miterlimit="10" stroke-linejoin="round"/>
<path d="M11 10H26C31.052 10 35.479 13.917 36 27" stroke-width="2" stroke-miterlimit="10" stroke-linejoin="round"/>
<path d="M16 8V5" stroke-width="2" stroke-miterlimit="10" stroke-linejoin="round"/>
<path d="M24 8V5" stroke-width="2" stroke-miterlimit="10" stroke-linejoin="round"/>
<path d="M10 5H31V9" stroke-width="2" stroke-miterlimit="10" stroke-linejoin="round"/>
<path d="M1 19V1H7V7L16 26V29" stroke-width="2" stroke-miterlimit="10" stroke-linecap="round" stroke-linejoin="round"/>
<path d="M18.9451 26.276C19.4301 26.098 19.9541 26 20.5001 26C22.6651 26 24.4731 27.529 24.9031 29.566" stroke-width="2" stroke-miterlimit="10" stroke-linecap="round" stroke-linejoin="round"/>
<path d="M7 41H11" stroke-width="2" stroke-miterlimit="10" stroke-linecap="round" stroke-linejoin="round"/>
<path d="M15 41H26" stroke-width="2" stroke-miterlimit="10" stroke-linecap="round" stroke-linejoin="round"/>
<path d="M24.401 28.252C25.05 26.919 26.417 26 28 26C29.911 26 31.51 27.341 31.906 29.133L31.904 29.132C32.808 27.843 34.306 27 36 27" stroke-width="2" stroke-miterlimit="10" stroke-linejoin="round"/>
<path d="M36 27C38.209 27 40 28.791 40 31H47" stroke-width="2" stroke-miterlimit="10" stroke-linecap="round" stroke-linejoin="round"/>
<path d="M43 37H35C35 35.343 33.657 34 32 34C30.343 34 29 35.343 29 37H25" stroke-width="2" stroke-miterlimit="10" stroke-linecap="round" stroke-linejoin="round"/>
<path d="M2 35H12C12 33.343 13.343 32 15 32C16.657 32 18 33.343 18 35H21" stroke-width="2" stroke-miterlimit="10" stroke-linecap="round" stroke-linejoin="round"/>
</svg>
